assets/images/partner/acend.svg

<?xml version="1.0" encoding="UTF-8"?>
<svg width="151px" height="37px" viewBox="0 0 151 37" version="1.1" xmlns="http://www.w3.org/2000/svg" xmlns:xlink="http://www.w3.org/1999/xlink">
    <title>AC-logo-rgb-white  Copy 4</title>
    <g id="RT-rokt-–-UI-Design-Desktop-RZ" stroke="none" stroke-width="1" fill="none" fill-rule="evenodd">
        <g id="RT_Website-UI-1600px" transform="translate(-160.000000, -6589.000000)" fill="#FFFFFF" fill-rule="nonzero">
            <g id="Group-" transform="translate(160.000000, 6524.392777)">
                <g id="AC-logo-rgb-white--Copy-4" transform="translate(0.000000, 64.607223)">
                    <path d="M110.198683,12.9416971 C109.31255,11.956379 108.217334,11.2017284 107.001029,10.7383778 C105.674393,10.2373157 104.272426,9.98856691 102.861672,10.003938 C101.547923,9.96682779 100.239495,10.1922896 99.0068958,10.668174 C98.0844392,11.037147 97.2141524,11.534904 96.4197976,12.1478541 C95.6576419,12.7920902 94.9915096,13.5510303 94.4432546,14.399776 L94.3397707,14.399776 L94.3397707,10.5385669 L89,10.5385669 L89,37 L94.3242481,37 L94.3242481,22.9160373 C94.3049861,21.7961591 94.4802906,20.6819039 94.8416677,19.6272591 C95.1744107,18.6959793 95.6829054,17.8438983 96.3370105,17.1215234 C96.9783792,16.4279386 97.7474981,15.8768675 98.5981343,15.5014357 C99.48745,15.1126095 100.443587,14.9178044 101.407723,14.9290047 C103.077853,14.8411243 104.712708,15.4513477 105.950667,16.6246965 C107.078642,17.7551578 107.644354,19.5030524 107.647804,21.8683805 L107.647804,36.9891994 L112.997923,36.9891994 L112.997923,21.2581475 C113.025582,19.630496 112.776828,18.0105943 112.263187,16.4734884 C111.807662,15.1630475 111.103754,13.9618685 110.193508,12.9416971" id="Path"></path>
                    <path d="M139.645566,27.0522821 C139.260436,28.0564315 138.69238,28.9787196 137.970839,29.7713451 C137.270809,30.5330152 136.415519,31.1321189 135.464016,31.5272958 C134.462446,31.944811 133.387536,32.1529723 132.304155,32.139218 C131.248341,32.1497322 130.2016,31.9414722 129.228557,31.5272958 C128.288786,31.127388 127.444757,30.5286252 126.753332,29.7713451 C126.031179,28.9831655 125.469319,28.0593165 125.099671,27.0522821 C124.313213,24.7401337 124.313213,22.2288857 125.099671,19.9167372 C125.470545,18.9087181 126.032227,17.9833541 126.753332,17.1923532 C128.182076,15.6299954 130.198964,14.7522296 132.304155,14.7765908 C133.389449,14.7645929 134.465405,14.9802044 135.464016,15.4097972 C136.407163,15.8203445 137.259494,16.4173757 137.970839,17.1657479 C138.699311,17.9570699 139.268157,18.8842558 139.645566,19.895453 C140.071505,21.0415091 140.282252,22.2577514 140.267005,23.4818492 C140.284142,24.7009063 140.073302,25.9122708 139.645566,27.0522821 M151,5.43812595 L151,0 L140.267005,0 L140.267005,14.4094375 L140.114278,14.4094375 C139.558631,13.5474262 138.868587,12.7819418 138.070901,12.1426648 C137.217347,11.5268941 136.290114,11.0227107 135.311289,10.6421252 C134.027001,10.1425665 132.65827,9.90213567 131.282466,9.93442383 C129.652271,9.92348655 128.037813,10.2569771 126.542675,10.9134993 C125.064408,11.5630001 123.730221,12.5057132 122.61918,13.6857729 C121.458363,14.9217837 120.554092,16.380007 119.95963,17.9745494 C119.309944,19.7117456 118.984945,21.5556675 119.001139,23.4126753 C118.978217,25.3061315 119.301371,27.187601 119.954364,28.9625436 C120.544911,30.5495826 121.449905,31.998107 122.613914,33.2193937 C123.733257,34.391018 125.065314,35.3340328 126.537408,35.9969883 C128.029531,36.665396 129.645026,37.0063553 131.2772,36.9973481 C133.708589,37.0504978 136.091166,36.3034722 138.065635,34.8689231 C138.86332,34.2296461 139.553364,33.4641616 140.109012,32.6021504 L140.261738,32.6021504 L140.261738,36.4599208 L150.994734,36.4599208 L150.994734,31.032437 L145.633502,31.032437 L145.633502,5.43812595 L151,5.43812595 Z" id="Shape"></path>
                    <path d="M36.8543309,17.1999067 C37.5683957,16.4577282 38.4188807,15.8622966 39.3585142,15.4467074 C41.4883166,14.5647175 43.8855892,14.6088099 45.9819738,15.5685309 C46.804977,15.989737 47.5547303,16.5424613 48.202069,17.2052034 C48.6070444,17.6600929 48.9599833,18.1593452 49.2542469,18.693569 L53,14.9170399 C52.9631738,14.8640731 52.9316084,14.8058097 52.8895213,14.752843 C52.3774879,14.129271 51.8181538,13.5466527 51.2165585,13.010237 C50.5340446,12.41023 49.7814515,11.8961951 48.9754197,11.4794979 C48.054387,11.02032 47.0857624,10.665051 46.0871915,10.420163 C44.8823912,10.1231754 43.644809,9.98255537 42.4045691,10.0017257 C40.6014442,9.99314959 38.8141295,10.3404478 37.1436798,11.0239839 C35.5436614,11.6726562 34.0892366,12.6380615 32.8665769,13.8630016 C31.6481584,15.0916859 30.6842996,16.5518096 30.0309576,18.1586049 C28.6563475,21.585274 28.6563475,25.4153289 30.0309576,28.841998 C30.6856585,30.4480674 31.6493493,31.9079367 32.8665769,33.1376013 C34.0892366,34.3625414 35.5436614,35.3279467 37.1436798,35.976619 C38.8141295,36.6601551 40.6014442,37.0074533 42.4045691,36.9988772 C43.6550338,37.0141475 44.9025718,36.8736009 46.1187569,36.5804399 C47.1472562,36.3321613 48.1418782,35.958642 49.0806375,35.4681382 C49.9010366,35.0359284 50.6645289,34.5021188 51.3533417,33.8791358 C51.9453968,33.3311099 52.4747706,32.718189 52.9316084,32.051783 L49.248986,28.3441106 C48.9885812,28.8056567 48.6837371,29.240309 48.3388521,29.6417959 C47.6701799,30.332036 46.8957346,30.9096675 46.0451044,31.3526219 C44.917543,31.9154713 43.667311,32.1832488 42.40983,32.1312331 C41.3719103,32.1393815 40.3442073,31.9244975 39.3953404,31.5009288 C38.4583832,31.0828897 37.6086488,30.4897809 36.8911571,29.7530261 C36.1507154,28.9751863 35.5649876,28.0618517 35.1655855,27.0623153 C34.7186869,25.9341805 34.4987371,24.7279306 34.5184961,23.5135431 C34.5059584,22.3107869 34.7164912,21.1162391 35.139281,19.9912544 C35.524377,18.97636 36.101471,18.0463689 36.8385483,17.2528735" id="Path"></path>
                    <path d="M63.6474673,20.946779 C64.4133987,17.44614 67.0686275,14.8299286 70.6736111,14.8299286 C74.2785948,14.8299286 76.5763889,17.44614 77.3423203,20.946779 L63.6474673,20.946779 Z M70.7961601,10 C63.2951389,10 58,15.9050114 58,23.239936 C58,23.3299675 58,23.4147031 58,23.4994387 C58,23.9284126 58,24.3467946 58.0510621,24.7651766 C58.0510621,24.8075444 58.0510621,24.8552081 58.0510621,24.9028719 C58.0765931,25.2100384 58.1174428,25.5172049 58.1633987,25.8190755 C58.1633987,25.8932191 58.1889297,25.9673628 58.1991422,26.0362104 C58.3018989,26.631074 58.4417625,27.2183956 58.6178513,27.7944739 C58.6433824,27.8633216 58.6638072,27.9321693 58.684232,28.0063129 C58.78125,28.2869995 58.878268,28.5676862 58.9906046,28.8430768 C60.2640458,32.093432 62.7556142,34.6680393 65.8941993,35.9767543 C67.5155346,36.6602001 69.250299,37.0074523 71.0004085,36.9988774 C72.2141072,37.0141456 73.4249652,36.8736176 74.6053922,36.5804954 C75.6036516,36.3322496 76.5690299,35.9587797 77.4801879,35.4683408 C78.2775385,35.0380277 79.0187972,34.5041343 79.6860703,33.8795485 C80.2591355,33.3300009 80.7727852,32.7173512 81.217933,32.0524373 L77.6435866,28.3452553 C77.3913743,28.805444 77.0954453,29.2383348 76.7602124,29.637473 C76.1099348,30.3261168 75.3585058,30.9034829 74.5339052,31.3480727 C73.438632,31.908268 72.2258004,32.1758686 71.0055147,32.126581 C69.9981119,32.1347283 69.0006252,31.9198727 68.0796569,31.49636 C67.170248,31.0783762 66.3454974,30.4853459 65.6491013,29.7486885 C64.931566,28.9720358 64.3631663,28.0607907 63.9742647,27.0636295 C63.8874592,26.8464945 63.8159722,26.6240636 63.7495915,26.3963367 C63.7189542,26.2957132 63.688317,26.1897937 63.6627859,26.0838742 L63.6015114,25.8243715 C63.5402369,25.5277969 63.4840686,25.2259263 63.443219,24.9134639 L83,24.9134639 L83,23.3776313 C83,15.375414 77.8937908,10.0158879 70.7961601,10.0158879" id="Shape"></path>
                    <path d="M17.6324593,23.4946022 C17.6324593,28.8114754 13.6722831,32.0069972 10.0516999,32.0069972 C7.67454934,32.0069972 5.7989514,30.6629348 5.7989514,28.2285086 C5.7989514,24.7846861 10.9398661,22.7335066 17.6324593,22.7335066 L17.6324593,23.4946022 Z M23.0084768,30.9652139 L23.0084768,10 L1.70293807,10 L1.70293807,15.5057977 L17.6324593,15.5057977 L17.6324593,18.3126749 C5.09364298,18.3126749 0.198280107,22.042583 0.00497335548,28.3904438 C-0.162210862,33.7343063 3.90767994,37 8.88663492,37 C12.0944821,37 15.5687791,35.6937225 17.4913976,32.5629748 L17.6585818,32.5629748 L17.6585818,36.4818073 L27,36.4818073 L27,30.9760096 L23.0084768,30.9652139 Z" id="Shape"></path>
                </g>
            </g>
        </g>
    </g>
</svg>

<?xml version="1.0" encoding="UTF-8" standalone="no"?>
<svg
   xmlns:dc="http://purl.org/dc/elements/1.1/"
   xmlns:cc="http://creativecommons.org/ns#"
   xmlns:rdf="http://www.w3.org/1999/02/22-rdf-syntax-ns#"
   xmlns:svg="http://www.w3.org/2000/svg"
   xmlns="http://www.w3.org/2000/svg"
   xmlns:sodipodi="http://sodipodi.sourceforge.net/DTD/sodipodi-0.dtd"
   xmlns:inkscape="http://www.inkscape.org/namespaces/inkscape"
   clip-rule="evenodd"
   fill-rule="evenodd"
   stroke-linejoin="round"
   stroke-miterlimit="1.414"
   width="1054.264"
   height="338.504"
   version="1.1"
   id="svg198"
   sodipodi:docname="acend-v2.svg"
   inkscape:version="0.92.5 (2060ec1f9f, 2020-04-08)">
  <metadata
     id="metadata8">
    <rdf:RDF>
      <cc:Work
         rdf:about="">
        <dc:format>image/svg+xml</dc:format>
        <dc:type
           rdf:resource="http://purl.org/dc/dcmitype/StillImage" />
        <dc:title></dc:title>
      </cc:Work>
    </rdf:RDF>
  </metadata>
  <sodipodi:namedview
     id="namedview200"
     pagecolor="#ffffff"
     bordercolor="#000000"
     borderopacity="0.25"
     inkscape:showpageshadow="2"
     inkscape:pageopacity="0.0"
     inkscape:pagecheckerboard="0"
     inkscape:deskcolor="#d1d1d1"
     showgrid="false"
     inkscape:zoom="0.82548295"
     inkscape:cx="541.50119"
     inkscape:cy="244.70523"
     inkscape:window-width="1684"
     inkscape:window-height="1376"
     inkscape:window-x="1756"
     inkscape:window-y="27"
     inkscape:window-maximized="0"
     inkscape:current-layer="svg198" />
  <defs
     id="defs184" />
  <g
     style="fill:none;fill-rule:evenodd;stroke:none;stroke-width:1"
     id="RT-rokt-–-UI-Design-Desktop-RZ"
     transform="matrix(6.0123881,0,0,6.0123881,4.738493,57.744848)">
    <g
       style="fill:#ffffff;fill-rule:nonzero"
       id="RT_Website-UI-1600px"
       transform="translate(-160,-6589)">
      <g
         id="Group-"
         transform="translate(160,6524.3928)">
        <g
           id="AC-logo-rgb-white--Copy-4"
           transform="translate(0,64.607223)">
          <path
             inkscape:connector-curvature="0"
             d="m 110.19868,12.941697 c -0.88613,-0.985318 -1.98135,-1.739969 -3.19765,-2.203319 -1.32664,-0.501062 -2.7286,-0.7498111 -4.13936,-0.73444 -1.31375,-0.03711 -2.62217,0.188352 -3.854774,0.664236 -0.922457,0.368973 -1.792744,0.86673 -2.587098,1.47968 -0.762156,0.644236 -1.428288,1.403176 -1.976543,2.251922 H 94.339771 V 10.538567 H 89 V 37 h 5.324248 V 22.916037 c -0.01926,-1.119878 0.156043,-2.234133 0.51742,-3.288778 0.332743,-0.93128 0.841237,-1.783361 1.495343,-2.505736 0.641368,-0.693584 1.410487,-1.244656 2.261123,-1.620087 0.889316,-0.388826 1.845456,-0.583632 2.809586,-0.572431 1.67013,-0.08788 3.30499,0.522343 4.54295,1.695691 1.12797,1.130462 1.69368,2.878356 1.69713,5.243684 v 15.120819 h 5.35012 V 21.258147 c 0.0277,-1.627651 -0.22109,-3.247553 -0.73473,-4.784659 -0.45553,-1.310441 -1.15944,-2.511619 -2.06968,-3.531791"
             id="Path" />
          <path
             inkscape:connector-curvature="0"
             d="m 139.64557,27.052282 c -0.38513,1.004149 -0.95319,1.926438 -1.67473,2.719063 -0.70003,0.76167 -1.55532,1.360774 -2.50682,1.755951 -1.00157,0.417515 -2.07648,0.625676 -3.15987,0.611922 -1.05581,0.01051 -2.10255,-0.197746 -3.07559,-0.611922 -0.93977,-0.399908 -1.7838,-0.998671 -2.47523,-1.755951 -0.72215,-0.78818 -1.28401,-1.712028 -1.65366,-2.719063 -0.78646,-2.312148 -0.78646,-4.823396 0,-7.135545 0.37088,-1.008019 0.93256,-1.933383 1.65366,-2.724384 1.42875,-1.562358 3.44563,-2.440123 5.55082,-2.415762 1.0853,-0.012 2.16125,0.203613 3.15987,0.633206 0.94314,0.410547 1.79547,1.007579 2.50682,1.755951 0.72847,0.791322 1.29732,1.718508 1.67473,2.729705 0.42593,1.146056 0.63668,2.362298 0.62143,3.586396 0.0171,1.219057 -0.1937,2.430422 -0.62143,3.570433 M 151,5.4381259 V 0 h -10.733 v 14.409437 h -0.15272 c -0.55565,-0.862011 -1.24569,-1.627495 -2.04338,-2.266772 -0.85355,-0.615771 -1.78079,-1.119954 -2.75961,-1.50054 -1.28429,-0.499559 -2.65302,-0.7399893 -4.02882,-0.7077012 -1.6302,-0.010937 -3.24466,0.3225532 -4.73979,0.9790752 -1.47827,0.649501 -2.81246,1.592214 -3.9235,2.772274 -1.16082,1.236011 -2.06509,2.694234 -2.65955,4.288776 -0.64969,1.737197 -0.97469,3.581118 -0.95849,5.438126 -0.0229,1.893456 0.30023,3.774926 0.95322,5.549869 0.59055,1.587039 1.49555,3.035563 2.65955,4.25685 1.11935,1.171624 2.4514,2.114639 3.9235,2.777594 1.49212,0.668408 3.10762,1.009367 4.73979,1.00036 2.43139,0.05315 4.81397,-0.693876 6.78843,-2.128425 0.79769,-0.639277 1.48773,-1.404761 2.04338,-2.266773 h 0.15273 v 3.857771 h 10.73299 V 31.032437 H 145.6335 V 5.4381259 Z"
             id="Shape" />
          <path
             inkscape:connector-curvature="0"
             d="m 36.854331,17.199907 c 0.714065,-0.742179 1.56455,-1.33761 2.504183,-1.7532 2.129803,-0.881989 4.527075,-0.837897 6.62346,0.121824 0.823003,0.421206 1.572756,0.97393 2.220095,1.636672 0.404975,0.45489 0.757914,0.954142 1.052178,1.488366 L 53,14.91704 C 52.96317,14.86407 52.93161,14.80581 52.889521,14.752843 52.377488,14.129271 51.818154,13.546653 51.216558,13.010237 50.534045,12.41023 49.781452,11.896195 48.97542,11.479498 48.054387,11.02032 47.085762,10.665051 46.087192,10.420163 44.882391,10.123175 43.644809,9.9825554 42.404569,10.001726 c -1.803125,-0.00858 -3.59044,0.338722 -5.260889,1.022258 -1.600019,0.648672 -3.054443,1.614077 -4.277103,2.839018 -1.218419,1.228684 -2.182277,2.688808 -2.835619,4.295603 -1.374611,3.426669 -1.374611,7.256724 0,10.683393 0.6547,1.606069 1.618391,3.065939 2.835619,4.295603 1.22266,1.22494 2.677084,2.190346 4.277103,2.839018 1.670449,0.683536 3.457764,1.030834 5.260889,1.022258 1.250465,0.01527 2.498003,-0.125276 3.714188,-0.418437 1.028499,-0.248279 2.023121,-0.621798 2.961881,-1.112302 0.820399,-0.43221 1.583891,-0.966019 2.272704,-1.589002 0.592055,-0.548026 1.121429,-1.160947 1.578266,-1.827353 l -3.682622,-3.707672 c -0.260405,0.461546 -0.565249,0.896198 -0.910134,1.297685 -0.668672,0.69024 -1.443117,1.267871 -2.293748,1.710826 -1.127561,0.562849 -2.377793,0.830627 -3.635274,0.778611 -1.03792,0.0081 -2.065623,-0.206736 -3.01449,-0.630304 -0.936957,-0.418039 -1.786691,-1.011148 -2.504183,-1.747903 -0.740442,-0.77784 -1.326169,-1.691174 -1.725572,-2.690711 -0.446898,-1.128135 -0.666848,-2.334384 -0.647089,-3.548772 -0.01254,-1.202756 0.197995,-2.397304 0.620785,-3.522289 0.385096,-1.014894 0.96219,-1.944885 1.699267,-2.738381"
             id="path6" />
          <path
             inkscape:connector-curvature="0"
             d="m 63.647467,20.946779 c 0.765932,-3.500639 3.421161,-6.11685 7.026144,-6.11685 3.604984,0 5.902778,2.616211 6.668709,6.11685 z M 70.79616,10 C 63.295139,10 58,15.905011 58,23.239936 c 0,0.09003 0,0.174767 0,0.259503 0,0.428974 0,0.847356 0.05106,1.265738 0,0.04237 0,0.09003 0,0.137695 0.02553,0.307166 0.06638,0.614333 0.112337,0.916203 0,0.07414 0.02553,0.148288 0.03574,0.217135 0.102757,0.594864 0.242621,1.182186 0.418709,1.758264 0.02553,0.06885 0.04596,0.137695 0.06638,0.211839 0.09702,0.280686 0.194036,0.561373 0.306373,0.836764 1.273441,3.250355 3.765009,5.824962 6.903594,7.133677 1.621336,0.683446 3.3561,1.030698 5.10621,1.022123 1.213698,0.01527 2.424556,-0.125259 3.604983,-0.418382 0.99826,-0.248245 1.963638,-0.621715 2.874796,-1.112154 0.797351,-0.430313 1.538609,-0.964207 2.205882,-1.588793 0.573065,-0.549547 1.086715,-1.162197 1.531863,-1.827111 l -3.574346,-3.707182 c -0.252213,0.460189 -0.548142,0.89308 -0.883375,1.292218 -0.650277,0.688644 -1.401706,1.26601 -2.226307,1.7106 -1.095273,0.560195 -2.308105,0.827796 -3.52839,0.778508 -1.007403,0.0081 -2.00489,-0.206708 -2.925858,-0.630221 -0.909409,-0.417984 -1.73416,-1.011014 -2.430556,-1.747672 -0.717535,-0.776652 -1.285935,-1.687897 -1.674836,-2.685059 -0.08681,-0.217135 -0.158293,-0.439565 -0.224674,-0.667292 -0.03064,-0.100624 -0.06127,-0.206543 -0.08681,-0.312463 l -0.06127,-0.259502 c -0.06127,-0.296575 -0.117442,-0.598446 -0.158292,-0.910908 H 83 V 23.377631 C 83,15.375414 77.893791,10.015888 70.79616,10.015888"
             id="path8" />
          <path
             inkscape:connector-curvature="0"
             d="m 17.632459,23.494602 c 0,5.316873 -3.960176,8.512395 -7.580759,8.512395 -2.3771507,0 -4.2527486,-1.344062 -4.2527486,-3.778488 0,-3.443823 5.1409146,-5.495002 11.8335076,-5.495002 z m 5.376018,7.470612 V 10 H 1.7029381 v 5.505798 H 17.632459 v 2.806877 c -12.538816,0 -17.43417889,3.729908 -17.62748564,10.077769 C -0.16221086,33.734306 3.9076799,37 8.8866349,37 12.094482,37 15.568779,35.693722 17.491398,32.562975 h 0.167184 v 3.918832 H 27 V 30.97601 Z"
             id="path10" />
        </g>
      </g>
    </g>
  </g>
</svg>
